assets/svg/fire.svg

<svg xmlns="http://www.w3.org/2000/svg" width="800" height="800" preserveAspectRatio="xMidYMid" viewBox="-33 0 255 255"><defs><linearGradient id="a" x1="94.141" x2="94.141" y1="255" y2=".188" gradientUnits="userSpaceOnUse"><stop offset="0" stop-color="#ff4c0d"/><stop offset="1" stop-color="#fc9502"/></linearGradient></defs><g fill-rule="evenodd"><path d="M187.899 164.809c-2.096 50.059-43.325 90.003-93.899 90.003-51.915 0-94-43.5-94-94 0-6.75-.121-20.24 10-43 6.057-13.621 9.856-22.178 12-30 1.178-4.299 3.469-11.129 10 0 3.851 6.562 4 16 4 16s14.328-10.995 24-32c14.179-30.793 2.866-49.2-1-62-1.338-4.428-2.178-12.386 7-9 9.352 3.451 34.076 20.758 47 39 18.445 26.035 25 51 25 51s5.906-7.33 8-15c2.365-8.661 2.4-17.239 9.999-7.999 7.227 8.787 17.96 25.3 24.001 40.999 10.969 28.509 7.899 55.997 7.899 55.997Z" style="fill:url(#a)"/><path d="M94 254.812c-35.899 0-65-29.101-65-65 0-21.661 8.729-34.812 26.896-52.646 11.632-11.419 22.519-25.444 27.146-34.994.911-1.88 2.984-11.677 10.977-.206 4.193 6.016 10.766 16.715 14.981 25.846 7.266 15.743 9 31 9 31s7.121-4.196 12-15c1.573-3.482 4.753-16.664 13.643-3.484C150.166 150 159.127 167.39 159 189.812c0 35.899-29.102 65-65 65Z" style="fill:#fc9502"/><path d="M95 183.812c9.25 0 9.25 17.129 21 40 7.824 15.229-3.879 31-21 31s-26-13.879-26-31c0-17.12 16.75-40 26-40Z" style="fill:#fce202"/></g></svg>

<?xml version="1.0" encoding="utf-8"?>
<!-- Uploaded to: SVG Repo, www.svgrepo.com, Generator: SVG Repo Mixer Tools -->
<svg width="800px" height="800px" viewBox="-33 0 255 255" xmlns="http://www.w3.org/2000/svg" xmlns:xlink="http://www.w3.org/1999/xlink" preserveAspectRatio="xMidYMid">
  <defs>
    <style>

      .cls-3 {
        fill: url(#linear-gradient-1);
      }

      .cls-4 {
        fill: #fc9502;
      }

      .cls-5 {
        fill: #fce202;
      }
    </style>

    <linearGradient id="linear-gradient-1" gradientUnits="userSpaceOnUse" x1="94.141" y1="255" x2="94.141" y2="0.188">
      <stop offset="0" stop-color="#ff4c0d"/>
      <stop offset="1" stop-color="#fc9502"/>
    </linearGradient>
  </defs>
  <g id="fire">
    <path d="M187.899,164.809 C185.803,214.868 144.574,254.812 94.000,254.812 C42.085,254.812 -0.000,211.312 -0.000,160.812 C-0.000,154.062 -0.121,140.572 10.000,117.812 C16.057,104.191 19.856,95.634 22.000,87.812 C23.178,83.513 25.469,76.683 32.000,87.812 C35.851,94.374 36.000,103.812 36.000,103.812 C36.000,103.812 50.328,92.817 60.000,71.812 C74.179,41.019 62.866,22.612 59.000,9.812 C57.662,5.384 56.822,-2.574 66.000,0.812 C75.352,4.263 100.076,21.570 113.000,39.812 C131.445,65.847 138.000,90.812 138.000,90.812 C138.000,90.812 143.906,83.482 146.000,75.812 C148.365,67.151 148.400,58.573 155.999,67.813 C163.226,76.600 173.959,93.113 180.000,108.812 C190.969,137.321 187.899,164.809 187.899,164.809 Z" id="path-1" class="cls-3" fill-rule="evenodd"/>
    <path d="M94.000,254.812 C58.101,254.812 29.000,225.711 29.000,189.812 C29.000,168.151 37.729,155.000 55.896,137.166 C67.528,125.747 78.415,111.722 83.042,102.172 C83.953,100.292 86.026,90.495 94.019,101.966 C98.212,107.982 104.785,118.681 109.000,127.812 C116.266,143.555 118.000,158.812 118.000,158.812 C118.000,158.812 125.121,154.616 130.000,143.812 C131.573,140.330 134.753,127.148 143.643,140.328 C150.166,150.000 159.127,167.390 159.000,189.812 C159.000,225.711 129.898,254.812 94.000,254.812 Z" id="path-2" class="cls-4" fill-rule="evenodd"/>
    <path d="M95.000,183.812 C104.250,183.812 104.250,200.941 116.000,223.812 C123.824,239.041 112.121,254.812 95.000,254.812 C77.879,254.812 69.000,240.933 69.000,223.812 C69.000,206.692 85.750,183.812 95.000,183.812 Z" id="path-3" class="cls-5" fill-rule="evenodd"/>
  </g>
</svg>
